webapp/src/assets/icons/cloudproviders/aws/architecture_services/opensearch.svg

<?xml version="1.0" encoding="UTF-8"?>
<svg width="24px" height="24px" viewBox="0 0 24 24" version="1.1" xmlns="http://www.w3.org/2000/svg" xmlns:xlink="http://www.w3.org/1999/xlink">
    <title>Icon-Architecture/16/Arch_Amazon-OpenSearch-Service_16</title>
    <g id="Icon-Architecture/16/Arch_Amazon-OpenSearch-Service_16" stroke="none" stroke-width="1" fill="none" fill-rule="evenodd">
        <path d="M18.8849349,18.111 C18.7412028,18.267 18.4955331,18.278 18.3395685,18.14 L16.0072352,16.077 C16.1968392,15.906 16.3680945,15.719 16.5220203,15.517 L18.8543536,17.577 C19.012357,17.717 19.0256089,17.958 18.8849349,18.111 L18.8849349,18.111 Z M10.1458206,13.114 C10.1458206,11.441 11.533192,10.08 13.2386088,10.08 C14.9440256,10.08 16.3313969,11.441 16.3313969,13.114 C16.3313969,14.787 14.9440256,16.148 13.2386088,16.148 C11.533192,16.148 10.1458206,14.787 10.1458206,13.114 L10.1458206,13.114 Z M19.5383552,16.835 L17.0429217,14.632 C17.2386419,14.162 17.3507734,13.651 17.3507734,13.114 C17.3507734,10.889 15.5067214,9.08 13.2386088,9.08 C10.9704962,9.08 9.12644416,10.889 9.12644416,13.114 C9.12644416,15.339 10.9704962,17.148 13.2386088,17.148 C13.9328041,17.148 14.5760307,16.963 15.1499396,16.664 L17.6576057,18.883 C17.9257017,19.119 18.2610765,19.235 18.595432,19.235 C18.9797369,19.235 19.3640418,19.082 19.6413122,18.781 C20.1571167,18.217 20.1112448,17.345 19.5383552,16.835 L19.5383552,16.835 Z M17.2518938,9 L16.2325174,9 L16.2325174,6.5 C16.2325174,6.223 16.4608577,6 16.7422056,6 L18.7809585,6 C19.0633258,6 19.2906467,6.223 19.2906467,6.5 L19.2906467,14 L18.2712703,14 L18.2712703,7 L17.2518938,7 L17.2518938,9 Z M14.1937645,18 L15.2131409,18 L15.2131409,19.5 C15.2131409,19.776 14.98582,20 14.7034527,20 L12.6646998,20 C12.3833519,20 12.1550116,19.776 12.1550116,19.5 L12.1550116,18 L13.174388,18 L13.174388,19 L14.1937645,19 L14.1937645,18 Z M13.174388,8 L12.1550116,8 L12.1550116,4.5 C12.1550116,4.223 12.3833519,4 12.6646998,4 L14.7034527,4 C14.98582,4 15.2131409,4.223 15.2131409,4.5 L15.2131409,8 L14.1937645,8 L14.1937645,5 L13.174388,5 L13.174388,8 Z M10.1162587,18 L11.1356351,18 L11.1356351,19.5 C11.1356351,19.776 10.9083142,20 10.6259469,20 L8.58719402,20 C8.30584612,20 8.0775058,19.776 8.0775058,19.5 L8.0775058,16 L9.09688224,16 L9.09688224,19 L10.1162587,19 L10.1162587,18 Z M9.09688224,9 L8.0775058,9 L8.0775058,6.5 C8.0775058,6.223 8.30584612,6 8.58719402,6 L10.6259469,6 C10.9083142,6 11.1356351,6.223 11.1356351,6.5 L11.1356351,8 L10.1162587,8 L10.1162587,7 L9.09688224,7 L9.09688224,9 Z M5.01937645,19 L6.0387529,19 L6.0387529,10 L5.01937645,10 L5.01937645,19 Z M6.54844112,9 L4.50968822,9 C4.22834032,9 4,9.223 4,9.5 L4,19.5 C4,19.776 4.22834032,20 4.50968822,20 L6.54844112,20 C6.8308084,20 7.05812935,19.776 7.05812935,19.5 L7.05812935,9.5 C7.05812935,9.223 6.8308084,9 6.54844112,9 L6.54844112,9 Z" id="Amazon-OpenSearch-Service_Icon_16_Squid" fill="#8C4FFF"></path>
    </g>
</svg>

<svg width="24" height="24" xmlns="http://www.w3.org/2000/svg"><path d="M18.885 18.111a.393.393 0 0 1-.545.029l-2.333-2.063c.19-.171.361-.358.515-.56l2.332 2.06c.158.14.172.381.03.534Zm-8.74-4.997c0-1.673 1.388-3.034 3.094-3.034 1.705 0 3.092 1.361 3.092 3.034 0 1.673-1.387 3.034-3.092 3.034-1.706 0-3.093-1.361-3.093-3.034Zm9.393 3.721-2.495-2.203c.196-.47.308-.981.308-1.518 0-2.225-1.844-4.034-4.112-4.034-2.269 0-4.113 1.809-4.113 4.034 0 2.225 1.844 4.034 4.113 4.034.694 0 1.337-.185 1.91-.484l2.509 2.219c.268.236.603.352.937.352a1.42 1.42 0 0 0 1.046-.454 1.366 1.366 0 0 0-.103-1.946ZM17.252 9h-1.02V6.5c0-.277.229-.5.51-.5h2.039c.282 0 .51.223.51.5V14h-1.02V7h-1.02v2Zm-3.058 9h1.02v1.5c0 .276-.228.5-.51.5h-2.04a.505.505 0 0 1-.509-.5V18h1.02v1h1.019v-1Zm-1.02-10h-1.019V4.5c0-.277.228-.5.51-.5h2.038c.283 0 .51.223.51.5V8h-1.02V5h-1.019v3Zm-3.058 10h1.02v1.5c0 .276-.228.5-.51.5H8.587a.505.505 0 0 1-.51-.5V16h1.02v3h1.02v-1Zm-1.02-9H8.079V6.5c0-.277.228-.5.51-.5h2.038c.282 0 .51.223.51.5V8h-1.02V7h-1.02v2ZM5.02 19h1.02v-9H5.02v9ZM6.55 9H4.51a.504.504 0 0 0-.51.5v10c0 .276.228.5.51.5h2.038c.283 0 .51-.224.51-.5v-10c0-.277-.227-.5-.51-.5Z" fill="#8C4FFF" fill-rule="evenodd"/></svg>
